X: 128007
M: 6/8
L: 1/8
K: A
ue |\
ve2ve cde | vf2vf uf2uf | gfg efg | a2a a2a |\
e2e cde | f2g agf | efe dcB | A2z a2 H|]
|: uE |\
vA2vA AGA | B2B e2e | c2c A2A | GAB EFG |\


